;FLAVOR:Marlin
;TIME:7124
;Filament used: 8.91756m
;Layer height: 0.2
;Generated with Cura_SteamEngine 3.2.0
M104 S215
M109 S215
M82 ;absolute extrusion mode
G28 ;Home
G1 Z15.0 F6000 ;Move the platform down 15mm
;Prime the extruder
G92 E0
G1 F200 E3
G92 E0
;LAYER_COUNT:125
;LAYER:0
M107
G0 F3600 X73.096 Y52.046 Z0.3
;TYPE:SKIRT
G1 F1800 X73.579 Y51.422 E0.03937
G1 X74.122 Y50.849 E0.07875
G1 X74.721 Y50.334 E0.11816
G1 X75.369 Y49.883 E0.15755
G1 X76.06 Y49.499 E0.19699
G1 X76.785 Y49.187 E0.23637
G1 X77.538 Y48.95 E0.27575
G1 X78.312 Y48.791 E0.31517
G1 X79.097 Y48.71 E0.35455
G1 X79.499 Y48.7 E0.37461
G1 X159.499 Y48.7 E4.36582
G1 X160.288 Y48.74 E4.40524
G1 X161.068 Y48.859 E4.4446
G1 X161.833 Y49.057 E4.48403
G1 X162.573 Y49.331 E4.52339
G1 X163.282 Y49.679 E4.5628
G1 X163.953 Y50.097 E4.60224
G1 X164.577 Y50.58 E4.64161
G1 X165.15 Y51.123 E4.68099
G1 X165.665 Y51.722 E4.7204
G1 X166.116 Y52.37 E4.75979
G1 X166.5 Y53.061 E4.79923
G1 X166.812 Y53.786 E4.83861
G1 X167.049 Y54.539 E4.87799
G1 X167.208 Y55.313 E4.91741
G1 X167.289 Y56.098 E4.95678
G1 X167.299 Y56.5 E4.97685
G1 X167.299 Y106.5 E7.47136
G1 X167.259 Y107.289 E7.51077
G1 X167.14 Y108.069 E7.55013
G1 X166.942 Y108.834 E7.58956
G1 X166.668 Y109.574 E7.62893
G1 X166.32 Y110.283 E7.66833
G1 X165.902 Y110.954 E7.70777
G1 X165.419 Y111.578 E7.74714
G1 X164.876 Y112.151 E7.78652
G1 X164.277 Y112.666 E7.82593
G1 X163.629 Y113.117 E7.86532
G1 X162.938 Y113.501 E7.90476
G1 X162.213 Y113.813 E7.94414
G1 X161.46 Y114.05 E7.98352
G1 X160.686 Y114.209 E8.02294
G1 X159.901 Y114.29 E8.06232
G1 X159.499 Y114.3 E8.08238
G1 X156.489 Y114.3 E8.23255
G1 X156.573 Y114.331 E8.23701
G1 X157.282 Y114.679 E8.27642
G1 X157.953 Y115.097 E8.31586
G1 X158.577 Y115.58 E8.35523
G1 X159.15 Y116.123 E8.39461
G1 X159.665 Y116.722 E8.43402
G1 X160.116 Y117.37 E8.47341
G1 X160.5 Y118.061 E8.51285
G1 X160.812 Y118.786 E8.55223
G1 X161.049 Y119.539 E8.59161
G1 X161.208 Y120.313 E8.63103
G1 X161.289 Y121.098 E8.6704
G1 X161.299 Y121.5 E8.69047
G1 X161.299 Y133.5 E9.28915
G1 X161.259 Y134.289 E9.32856
G1 X161.14 Y135.069 E9.36793
G1 X160.942 Y135.834 E9.40735
G1 X160.668 Y136.574 E9.44672
G1 X160.32 Y137.283 E9.48612
G1 X159.902 Y137.954 E9.52556
G1 X159.419 Y138.578 E9.56493
G1 X158.914 Y139.111 E9.60156
G1 X159.049 Y139.539 E9.62395
G1 X159.208 Y140.313 E9.66337
G1 X159.289 Y141.098 E9.70275
G1 X159.299 Y141.5 E9.72281
G1 X159.299 Y153.5 E10.32149
G1 X159.259 Y154.289 E10.3609
G1 X159.14 Y155.069 E10.40027
G1 X158.942 Y155.834 E10.43969
G1 X158.668 Y156.574 E10.47906
G1 X158.32 Y157.283 E10.51846
G1 X157.902 Y157.954 E10.5579
G1 X157.419 Y158.578 E10.59727
G1 X156.876 Y159.151 E10.63666
G1 X156.277 Y159.666 E10.67607
G1 X155.629 Y160.117 E10.71546
G1 X154.938 Y160.501 E10.7549
G1 X154.213 Y160.813 E10.79427
G1 X153.46 Y161.05 E10.83366
G1 X152.686 Y161.209 E10.87308
G1 X151.901 Y161.29 E10.91245
G1 X151.499 Y161.3 E10.93251
G1 X141.499 Y161.3 E11.43141
G1 X140.71 Y161.26 E11.47083
G1 X139.93 Y161.141 E11.51019
G1 X139.165 Y160.943 E11.54962
G1 X138.425 Y160.669 E11.58898
G1 X137.716 Y160.321 E11.62839
G1 X137.045 Y159.903 E11.66783
G1 X136.496 Y159.478 E11.70247
G1 X136.277 Y159.666 E11.71687
G1 X135.629 Y160.117 E11.75625
G1 X134.938 Y160.501 E11.79569
G1 X134.213 Y160.813 E11.83507
G1 X133.46 Y161.05 E11.87446
G1 X132.686 Y161.209 E11.91388
G1 X131.901 Y161.29 E11.95325
G1 X131.499 Y161.3 E11.97331
G1 X124.499 Y161.3 E12.32254
G1 X123.71 Y161.26 E12.36196
G1 X122.93 Y161.141 E12.40132
G1 X122.165 Y160.943 E12.44074
G1 X121.425 Y160.669 E12.48011
G1 X120.716 Y160.321 E12.51952
G1 X120.045 Y159.903 E12.55896
G1 X119.421 Y159.42 E12.59832
G1 X118.848 Y158.877 E12.63771
G1 X118.333 Y158.278 E12.67712
G1 X117.882 Y157.63 E12.71651
G1 X117.498 Y156.939 E12.75595
G1 X117.186 Y156.214 E12.79532
G1 X116.949 Y155.461 E12.83471
G1 X116.79 Y154.687 E12.87413
G1 X116.709 Y153.902 E12.9135
G1 X116.699 Y153.5 E12.93356
G1 X116.699 Y141.5 E13.53225
G1 X116.739 Y140.711 E13.57166
G1 X116.793 Y140.357 E13.58953
G1 X116.719 Y140.321 E13.59363
G1 X116.048 Y139.903 E13.63307
G1 X115.496 Y139.476 E13.66789
G1 X115.275 Y139.666 E13.68243
G1 X114.627 Y140.117 E13.72182
G1 X113.936 Y140.501 E13.76126
G1 X113.211 Y140.813 E13.80063
G1 X112.458 Y141.05 E13.84002
G1 X111.684 Y141.209 E13.87944
G1 X110.899 Y141.29 E13.91881
G1 X110.497 Y141.3 E13.93887
G1 X100.502 Y141.3 E14.43753
G1 X99.713 Y141.26 E14.47694
G1 X98.933 Y141.141 E14.51631
G1 X98.168 Y140.943 E14.55573
G1 X97.428 Y140.669 E14.5951
G1 X96.719 Y140.321 E14.6345
G1 X96.048 Y139.903 E14.67394
G1 X95.496 Y139.475 E14.70879
G1 X95.274 Y139.666 E14.7234
G1 X94.626 Y140.117 E14.76279
G1 X93.935 Y140.501 E14.80223
G1 X93.21 Y140.813 E14.8416
G1 X92.457 Y141.05 E14.88099
G1 X91.683 Y141.209 E14.92041
G1 X90.898 Y141.29 E14.95978
G1 X90.496 Y141.3 E14.97984
G1 X80.502 Y141.3 E15.47845
G1 X79.713 Y141.26 E15.51786
G1 X78.933 Y141.141 E15.55723
G1 X78.168 Y140.943 E15.59665
G1 X77.428 Y140.669 E15.63602
G1 X76.719 Y140.321 E15.67542
G1 X76.048 Y139.903 E15.71486
G1 X75.496 Y139.475 E15.74971
G1 X75.274 Y139.666 E15.76432
G1 X74.626 Y140.117 E15.80371
G1 X73.935 Y140.501 E15.84315
G1 X73.21 Y140.813 E15.88253
G1 X72.457 Y141.05 E15.92191
G1 X71.683 Y141.209 E15.96133
G1 X70.898 Y141.29 E16.0007
G1 X70.496 Y141.3 E16.02076
G1 X60.501 Y141.3 E16.51942
G1 X59.712 Y141.26 E16.55883
G1 X58.932 Y141.141 E16.5982
G1 X58.167 Y140.943 E16.63762
G1 X57.427 Y140.669 E16.67699
G1 X56.718 Y140.321 E16.71639
G1 X56.047 Y139.903 E16.75583
G1 X55.423 Y139.42 E16.7952
G1 X54.85 Y138.877 E16.83458
G1 X54.335 Y138.278 E16.87399
G1 X53.884 Y137.63 E16.91338
G1 X53.5 Y136.939 E16.95282
G1 X53.188 Y136.214 E16.9922
G1 X52.951 Y135.461 E17.03158
G1 X52.792 Y134.687 E17.07101
G1 X52.711 Y133.902 E17.11038
G1 X52.701 Y133.5 E17.13044
G1 X52.701 Y121.5 E17.72912
G1 X52.741 Y120.711 E17.76854
G1 X52.86 Y119.931 E17.8079
G1 X53.058 Y119.166 E17.84732
G1 X53.332 Y118.426 E17.88669
G1 X53.68 Y117.717 E17.9261
G1 X54.098 Y117.046 E17.96554
G1 X54.581 Y116.422 E18.0049
G1 X55.124 Y115.849 E18.04429
G1 X55.723 Y115.334 E18.0837
G1 X56.371 Y114.883 E18.12309
G1 X57.062 Y114.499 E18.16253
G1 X57.787 Y114.187 E18.2019
G1 X58.54 Y113.95 E18.24129
G1 X59.314 Y113.791 E18.28071
G1 X60.099 Y113.71 E18.32008
G1 X60.501 Y113.7 E18.34014
G1 X62.496 Y113.7 E18.43967
G1 X63.285 Y113.74 E18.47909
G1 X64.065 Y113.859 E18.51845
G1 X64.83 Y114.057 E18.55788
G1 X65.507 Y114.308 E18.5939
G1 X65.788 Y114.187 E18.60916
G1 X66.541 Y113.95 E18.64855
G1 X67.315 Y113.791 E18.68797
G1 X68.1 Y113.71 E18.72734
G1 X68.502 Y113.7 E18.7474
G1 X70.496 Y113.7 E18.84688
G1 X71.285 Y113.74 E18.8863
G1 X72.065 Y113.859 E18.92566
G1 X72.83 Y114.057 E18.96509
G1 X73.57 Y114.331 E19.00445
G1 X74.279 Y114.679 E19.04386
G1 X74.95 Y115.097 E19.0833
G1 X75.502 Y115.525 E19.11815
G1 X75.724 Y115.334 E19.13276
G1 X76.372 Y114.883 E19.17214
G1 X77.063 Y114.499 E19.21158
G1 X77.788 Y114.187 E19.25096
G1 X77.933 Y114.141 E19.25855
G1 X77.93 Y114.141 E19.2587
G1 X77.165 Y113.943 E19.29812
G1 X76.425 Y113.669 E19.33749
G1 X75.716 Y113.321 E19.3769
G1 X75.045 Y112.903 E19.41634
G1 X74.421 Y112.42 E19.4557
G1 X73.848 Y111.877 E19.49509
G1 X73.333 Y111.278 E19.5345
G1 X72.882 Y110.63 E19.57389
G1 X72.498 Y109.939 E19.61333
G1 X72.186 Y109.214 E19.6527
G1 X71.949 Y108.461 E19.69209
G1 X71.79 Y107.687 E19.73151
G1 X71.709 Y106.902 E19.77088
G1 X71.699 Y106.5 E19.79094
G1 X71.699 Y56.5 E22.28545
G1 X71.739 Y55.711 E22.32487
G1 X71.858 Y54.931 E22.36423
G1 X72.056 Y54.166 E22.40366
G1 X72.33 Y53.426 E22.44302
G1 X72.678 Y52.717 E22.48243
G1 X73.096 Y52.046 E22.52187
G0 F3600 X73.493 Y52.177
G1 F1800 X73.974 Y51.577 E22.56023
G1 X74.515 Y51.03 E22.59862
G1 X75.11 Y50.542 E22.63701
G1 X75.752 Y50.119 E22.67537
G1 X76.435 Y49.764 E22.71377
G1 X77.15 Y49.483 E22.7521
G1 X77.892 Y49.277 E22.79051
G1 X78.65 Y49.149 E22.82887
G1 X79.499 Y49.1 E22.87129
G1 X159.499 Y49.1 E26.86251
G1 X160.267 Y49.14 E26.90088
G1 X161.027 Y49.259 E26.93926
G1 X161.77 Y49.457 E26.97762
G1 X162.489 Y49.731 E27.01601
G1 X163.175 Y50.078 E27.05436
G1 X163.822 Y50.494 E27.09273
G1 X164.422 Y50.975 E27.1311
G1 X164.969 Y51.516 E27.16948
G1 X165.457 Y52.111 E27.20787
G1 X165.88 Y52.753 E27.24623
G1 X166.235 Y53.436 E27.28463
G1 X166.516 Y54.151 E27.32296
G1 X166.722 Y54.893 E27.36138
G1 X166.85 Y55.651 E27.39973
G1 X166.899 Y56.5 E27.44216
G1 X166.899 Y106.5 E29.93667
G1 X166.859 Y107.268 E29.97504
G1 X166.74 Y108.028 E30.01342
G1 X166.542 Y108.771 E30.05178
G1 X166.268 Y109.49 E30.09017
G1 X165.921 Y110.176 E30.12852
G1 X165.505 Y110.823 E30.1669
G1 X165.024 Y111.423 E30.20526
G1 X164.483 Y111.97 E30.24364
G1 X163.888 Y112.458 E30.28204
G1 X163.246 Y112.881 E30.32039
G1 X162.563 Y113.236 E30.3588
G1 X161.848 Y113.517 E30.39712
G1 X161.106 Y113.723 E30.43554
G1 X160.348 Y113.851 E30.47389
G1 X159.499 Y113.9 E30.51632
G1 X79.499 Y113.9 E34.50754
G1 X78.731 Y113.86 E34.5459
G1 X77.971 Y113.741 E34.58428
G1 X77.228 Y113.543 E34.62265
G1 X76.509 Y113.269 E34.66103
G1 X75.823 Y112.922 E34.69939
G1 X75.176 Y112.506 E34.73776
G1 X74.576 Y112.025 E34.77613
G1 X74.029 Y111.484 E34.81451
G1 X73.541 Y110.889 E34.8529
G1 X73.118 Y110.247 E34.89126
G1 X72.763 Y109.564 E34.92966
G1 X72.482 Y108.849 E34.96799
G1 X72.276 Y108.107 E35.00641
G1 X72.148 Y107.349 E35.04476
G1 X72.099 Y106.5 E35.08719
G1 X72.099 Y56.5 E37.5817
G1 X72.139 Y55.732 E37.62007
G1 X72.258 Y54.972 E37.65844
G1 X72.456 Y54.229 E37.69681
G1 X72.73 Y53.51 E37.73519
G1 X73.077 Y52.824 E37.77355
G1 X73.493 Y52.177 E37.81192
G0 F3600 X73.891 Y52.311
G1 F1800 X74.37 Y51.737 E37.84922
G1 X74.907 Y51.216 E37.88655
G1 X75.497 Y50.757 E37.92384
G1 X76.133 Y50.362 E37.9612
G1 X76.807 Y50.038 E37.9985
G1 X77.512 Y49.788 E38.03582
G1 X78.24 Y49.614 E38.07317
G1 X78.982 Y49.519 E38.11049
G1 X79.499 Y49.5 E38.1363
G1 X159.499 Y49.5 E42.12751
G1 X160.246 Y49.54 E42.16484
G1 X160.984 Y49.659 E42.20213
G1 X161.706 Y49.857 E42.23948
G1 X162.402 Y50.13 E42.27678
G1 X163.065 Y50.477 E42.31411
G1 X163.688 Y50.892 E42.35146
G1 X164.262 Y51.371 E42.38876
G1 X164.783 Y51.908 E42.42609
G1 X165.242 Y52.498 E42.46338
G1 X165.637 Y53.134 E42.50073
G1 X165.961 Y53.808 E42.53804
G1 X166.211 Y54.513 E42.57536
G1 X166.385 Y55.241 E42.6127
G1 X166.48 Y55.983 E42.65002
G1 X166.499 Y56.5 E42.67583
G1 X166.499 Y106.5 E45.17034
G1 X166.459 Y107.247 E45.20767
G1 X166.34 Y107.985 E45.24496
G1 X166.142 Y108.707 E45.28231
G1 X165.869 Y109.403 E45.31961
G1 X165.522 Y110.066 E45.35694
G1 X165.107 Y110.689 E45.39429
G1 X164.628 Y111.263 E45.43159
G1 X164.091 Y111.784 E45.46892
G1 X163.501 Y112.243 E45.50621
G1 X162.865 Y112.638 E45.54356
G1 X162.191 Y112.962 E45.58087
G1 X161.486 Y113.212 E45.61819
G1 X160.758 Y113.386 E45.65553
G1 X160.016 Y113.481 E45.69285
G1 X159.499 Y113.5 E45.71866
G1 X79.499 Y113.5 E49.70988
G1 X78.752 Y113.46 E49.7472
G1 X78.014 Y113.341 E49.7845
G1 X77.292 Y113.143 E49.82185
G1 X76.596 Y112.87 E49.85915
G1 X75.933 Y112.523 E49.89648
G1 X75.31 Y112.108 E49.93383
G1 X74.736 Y111.629 E49.97112
G1 X74.215 Y111.092 E50.00845
G1 X73.756 Y110.502 E50.04575
G1 X73.361 Y109.866 E50.0831
G1 X73.037 Y109.192 E50.12041
G1 X72.787 Y108.487 E50.15773
G1 X72.613 Y107.759 E50.19507
G1 X72.518 Y107.017 E50.23239
G1 X72.499 Y106.5 E50.2582
G1 X72.499 Y56.5 E52.75271
G1 X72.539 Y55.753 E52.79003
G1 X72.658 Y55.015 E52.82733
G1 X72.856 Y54.293 E52.86468
G1 X73.129 Y53.597 E52.90198
G1 X73.476 Y52.934 E52.93931
G1 X73.891 Y52.311 E52.97666
G0 F3600 X74.288 Y52.45
G1 F1800 X74.764 Y51.902 E53.01287
G1 X75.298 Y51.409 E53.04913
G1 X75.883 Y50.979 E53.08535
G1 X76.512 Y50.615 E53.12161
G1 X77.177 Y50.322 E53.15786
G1 X77.87 Y50.104 E53.19411
G1 X78.582 Y49.964 E53.23031
G1 X79.499 Y49.9 E53.27617
G1 X159.499 Y49.9 E57.26738
G1 X160.224 Y49.94 E57.30361
G1 X160.941 Y50.059 E57.33987
G1 X161.64 Y50.257 E57.37612
G1 X162.313 Y50.53 E57.41235
G1 X162.952 Y50.875 E57.44858
G1 X163.549 Y51.289 E57.48482
G1 X164.097 Y51.765 E57.52104
G1 X164.59 Y52.299 E57.5573
G1 X165.02 Y52.884 E57.59352
G1 X165.384 Y53.513 E57.62978
G1 X165.677 Y54.178 E57.66603
G1 X165.895 Y54.871 E57.70227
G1 X166.035 Y55.583 E57.73848
G1 X166.099 Y56.5 E57.78434
G1 X166.099 Y106.5 E60.27885
G1 X166.059 Y107.225 E60.31507
G1 X165.94 Y107.942 E60.35133
G1 X165.742 Y108.641 E60.38758
G1 X165.469 Y109.314 E60.42381
G1 X165.124 Y109.953 E60.46004
G1 X164.71 Y110.55 E60.49629
G1 X164.234 Y111.098 E60.5325
G1 X163.7 Y111.591 E60.56876
G1 X163.115 Y112.021 E60.60498
G1 X162.486 Y112.385 E60.64124
G1 X161.821 Y112.678 E60.67749
G1 X161.128 Y112.896 E60.71374
G1 X160.416 Y113.036 E60.74994
G1 X159.499 Y113.1 E60.7958
G1 X79.499 Y113.1 E64.78702
G1 X78.774 Y113.06 E64.82324
G1 X78.057 Y112.941 E64.8595
G1 X77.358 Y112.743 E64.89575
G1 X76.685 Y112.47 E64.93198
G1 X76.046 Y112.125 E64.96821
G1 X75.449 Y111.711 E65.00446
G1 X74.901 Y111.235 E65.04067
G1 X74.408 Y110.701 E65.07693
G1 X73.978 Y110.116 E65.11315
G1 X73.614 Y109.487 E65.14941
G1 X73.321 Y108.822 E65.18566
G1 X73.103 Y108.129 E65.22191
G1 X72.963 Y107.417 E65.25811
G1 X72.899 Y106.5 E65.30397
G1 X72.899 Y56.5 E67.79848
G1 X72.939 Y55.775 E67.8347
G1 X73.058 Y55.058 E67.87096
G1 X73.256 Y54.359 E67.90721
G1 X73.529 Y53.686 E67.94344
G1 X73.874 Y53.047 E67.97967
G1 X74.288 Y52.45 E68.01592
G0 F3600 X74.273 Y53.165
G1 F1800 X74.684 Y52.594 E68.05102
G1 X75.158 Y52.073 E68.08616
G1 X75.688 Y51.609 E68.1213
G1 X76.267 Y51.209 E68.15641
G1 X76.888 Y50.877 E68.19154
G1 X77.542 Y50.617 E68.22665
G1 X78.222 Y50.433 E68.2618
G1 X78.918 Y50.327 E68.29692
G1 X79.499 Y50.3 E68.32594
G1 X159.499 Y50.3 E72.31716
G1 X160.202 Y50.34 E72.35229
G1 X160.896 Y50.459 E72.38742
G1 X161.571 Y50.657 E72.42251
G1 X162.22 Y50.929 E72.45762
G1 X162.834 Y51.274 E72.49276
G1 X163.405 Y51.685 E72.52785
G1 X163.926 Y52.159 E72.563
G1 X164.39 Y52.689 E72.59814
G1 X164.79 Y53.268 E72.63325
G1 X165.122 Y53.889 E72.66838
G1 X165.382 Y54.543 E72.70349
G1 X165.566 Y55.223 E72.73864
G1 X165.672 Y55.919 E72.77376
G1 X165.699 Y56.5 E72.80278
G1 X165.699 Y106.5 E75.29729
G1 X165.659 Y107.203 E75.33242
G1 X165.54 Y107.897 E75.36755
G1 X165.342 Y108.572 E75.40264
G1 X165.07 Y109.221 E75.43775
G1 X164.725 Y109.835 E75.47289
G1 X164.314 Y110.406 E75.50799
G1 X163.84 Y110.927 E75.54313
G1 X163.31 Y111.391 E75.57827
G1 X162.731 Y111.791 E75.61338
G1 X162.11 Y112.123 E75.64851
G1 X161.456 Y112.383 E75.68362
G1 X160.776 Y112.567 E75.71877
G1 X160.08 Y112.673 E75.75389
G1 X159.499 Y112.7 E75.78291
G1 X79.499 Y112.7 E79.77413
G1 X78.796 Y112.66 E79.80926
G1 X78.102 Y112.541 E79.84438
G1 X77.427 Y112.343 E79.87948
G1 X76.778 Y112.071 E79.91459
G1 X76.164 Y111.726 E79.94972
G1 X75.593 Y111.315 E79.98482
G1 X75.072 Y110.841 E80.01996
G1 X74.608 Y110.311 E80.05511
G1 X74.208 Y109.732 E80.09022
G1 X73.876 Y109.111 E80.12535
G1 X73.616 Y108.457 E80.16046
G1 X73.432 Y107.777 E80.19561
G1 X73.326 Y107.081 E80.23073
G1 X73.299 Y106.5 E80.25975
G1 X73.299 Y56.5 E82.75426
G1 X73.339 Y55.797 E82.78939
G1 X73.458 Y55.103 E82.82452
G1 X73.656 Y54.428 E82.85961
G1 X73.928 Y53.779 E82.89472
G1 X74.273 Y53.165 E82.92985
G0 F3600 X74.671 Y53.286
G1 F1800 X75.081 Y52.742 E82.96384
G1 X75.552 Y52.251 E82.99778
G1 X76.077 Y51.817 E83.03177
G1 X76.649 Y51.448 E83.06573
G1 X77.261 Y51.149 E83.09971
G1 X77.903 Y50.924 E83.13365
G1 X78.568 Y50.775 E83.16765
G1 X79.499 Y50.7 E83.21425
G1 X159.499 Y50.7 E87.20546
G1 X160.179 Y50.74 E87.23945
G1 X160.849 Y50.859 E87.2734
G1 X161.501 Y51.056 E87.30738
G1 X162.125 Y51.328 E87.34134
G1 X162.713 Y51.672 E87.37533
G1 X163.257 Y52.082 E87.40931
G1 X163.748 Y52.553 E87.44326
G1 X164.182 Y53.078 E87.47724
G1 X164.551 Y53.65 E87.5112
G1 X164.85 Y54.262 E87.54518
G1 X165.075 Y54.904 E87.57912
G1 X165.224 Y55.569 E87.61312
G1 X165.299 Y56.5 E87.65972
G1 X165.299 Y106.5 E90.15423
G1 X165.259 Y107.18 E90.18821
G1 X165.14 Y107.85 E90.22216
G1 X164.943 Y108.502 E90.25614
G1 X164.671 Y109.126 E90.2901
G1 X164.327 Y109.714 E90.32409
G1 X163.917 Y110.258 E90.35807
G1 X163.446 Y110.749 E90.39202
G1 X162.921 Y111.183 E90.426
G1 X162.349 Y111.552 E90.45996
